X:1
T:Brouillards
T:Brouillards
T:(Fog) No 1 from Préludes Book 2 
T:Claude Debussy (1862-1918) 
C:Claude Debussy (1862-1918)
%%score { ( 1 4 ) | ( 2 5 6 ) | 3 }
L:1/8
Q:1/8=88
M:4/8
K:C
V:1 treble nm="Grand Piano" snm="Pno."
V:4 treble 
V:2 treble 
V:5 treble 
V:6 treble 
V:3 bass 
V:1
"^Modéré""^la m.g. un peu en valeur sur la m.d.""^extrêmement égal et léger"!pp![I:staff +1] (5:4:5(G/4[I:staff -1]_B/4_G/4_E/4_D/4)[I:staff +1] (5:4:5(F/4[I:staff -1]_A/4_F/4D/4_B,/4)[I:staff +1] (5:4:5(=G/4[I:staff -1]B/4_G/4E/4D/4)[I:staff +1] (5:4:5(=F/4[I:staff -1]A/4_F/4D/4B,/4) | %1
!<(! z!<)!!p!!>(![I:staff +1] (3(B/4[I:staff -1]_d'/4_d/4)[I:staff +1] (3(A/4[I:staff -1]d/4_D/4)!>)!!pp!!<(! z!<)!!p!!>(![I:staff +1] (3(B/4[I:staff -1]d'/4d/4)[I:staff +1] (3(A/4[I:staff -1]d/4D/4)!>)! | %2
[M:3/8]!pp![I:staff +1] (5:4:5(G/4[I:staff -1]_B/4_G/4_E/4_D/4)[I:staff +1] (5:4:5(F/4[I:staff -1]_A/4_F/4D/4_B,/4)[I:staff +1] (5:4:5(=E/4[I:staff -1]G/4_E/4_C/4_A,/4) | %3
[M:3/4][K:bass][I:staff +1] (6:4:6(D/4[I:staff -1]_D/4_B,/4_A,/4_G,/4_E,/4) z[I:staff +1] (6:4:6(=D/4[I:staff -1]_D/4B,/4A,/4G,/4E,/4) z[I:staff +1] (6:4:6(=D/4[I:staff -1]_D/4B,/4A,/4G,/4E,/4) z | %4
[M:4/8] x4 | x4 | x4 | x4 |[K:treble] x4 | !>!!tenuto!^f4- | !courtesy!^f4 |{/g} !>!!tenuto!^f4 | %12
 x4 | x4 | x4 | %15
[Q:1/4=44]"^Cédez - - - - - - - - - - - - - - - - - - - - - - - - - - - - - -" x4[Q:1/8=86][Q:1/8=85][Q:1/8=84] | %16
[Q:1/8=83] x4[Q:1/8=82][Q:1/8=81][Q:1/8=80] | %17
[Q:1/4=44]"^Mouvt."!pp!!8va(! (.[^c'^c'']/.[d'd'']/ !tenuto![d'd'']2 .[g'g''] | %18
!<(! .[^d'^d'']!<)!!p!!>(! !tenuto![^g'^g'']2 .[e'e''])!>)! | %19
!pp!!<(! (.[^c'^c'']!8va)!!<)!!p! !tenuto![^cc']3) | %20
!pp!!<(!!8va(! (.[^c'^c'']!<)!!8va)!!p! !tenuto![^cc']3) | %21
!pp!!8va(! (.[^c'^c'']/.[d'd'']/ !tenuto![d'd'']2 .[g'g''] | %22
!<(! .[e'e'']!<)!!p!!>(! !tenuto![a'a'']2 .[f'f''])!>)! | %23
[M:3/4]!pp!!<(! (.[^c'^c'']!8va)!!<)!!p! !tenuto![^cc']3) x2 | %24
[M:4/8]!<(! z!<)!!p!!>(![I:staff +1] (3(B/4[I:staff -1]_d'/4_d/4)[I:staff +1] (3(A/4[I:staff -1]d/4_D/4)!>)!!pp!!<(! z!<)!!p!!>(![I:staff +1] (3(B/4[I:staff -1]d'/4d/4)[I:staff +1] (3(A/4[I:staff -1]d/4D/4)!>)! | %25
[M:3/8]!pp![I:staff +1] (5:4:5(G/4[I:staff -1]_B/4_G/4_E/4_D/4)[I:staff +1] (5:4:5(F/4[I:staff -1]_A/4_F/4D/4_B,/4)[I:staff +1] (5:4:5(=E/4[I:staff -1]G/4_E/4_C/4_A,/4) | %26
[M:4/8][K:bass][I:staff +1] (6:4:6(D/4[I:staff -1]_D/4_B,/4_A,/4_G,/4_E,/4) x[I:staff +1] (6:4:6(=G,/4[I:staff -1]B,/4A,/4_G,/4E,/4_D,/4)[I:staff +1] (6:4:6(=A,/4[I:staff -1]C/4B,/4_A,/4G,/4F,/4) | %27
[I:staff +1] (6:4:6(D/4[I:staff -1]_D/4_B,/4_A,/4_G,/4_E,/4) x[I:staff +1] (6:4:6(=G,/4[I:staff -1]B,/4A,/4_G,/4E,/4_D,/4)[I:staff +1] (6:4:6(=D/4[I:staff -1]=G,,/4=D,/4D,/4=G,/4=D/4) | %28
!p!!<(! z/8 (=G,/8^C/8^F/8G/8[K:treble]G/8^c/8^f/8g/8g/8^c'/8^f'/8g'/8!8va(!g'/8^c''/8^f''/8!<)!!f! g''/)!8va)!!f! z/ x | %29
[K:bass]!p!!<(! z/8 (=G,/8^C/8^F/8G/8[K:treble]G/8^c/8^f/8g/8g/8^c'/8^f'/8g'/8!8va(!g'/8^c''/8^f''/8!<)!!f! g''/)!8va)!!f! z/ x | %30
 z4 | %31
[Q:1/4=40]"^Un peu retenu"[I:staff +1] (17:8:17(=d/4[I:staff -1]^D/4^G/4^d/4d/4^g/4^d'/4!8va(!d'/4^g'/4^d''/4g'/4d'/4!8va)!d'/4g/4d/4d/4G/4)[I:staff +1] (17:8:17(=d/4[I:staff -1]D/4G/4^d/4d/4g/4d'/4!8va(!d'/4g'/4d''/4g'/4d'/4!8va)!d'/4g/4d/4d/4G/4) | %32
[I:staff +1] (17:8:17(d/4[I:staff -1]^D/4^G/4^d/4d/4^g/4^d'/4!8va(!d'/4^g'/4^d''/4g'/4d'/4!8va)!d'/4g/4d/4d/4G/4)[I:staff +1] (17:8:17(=d/4[I:staff -1]D/4G/4^d/4d/4g/4d'/4!8va(!d'/4g'/4d''/4g'/4d'/4!8va)!d'/4g/4d/4d/4G/4) | %33
[I:staff +1] (17:8:17(B/4[I:staff -1]^D/4^G/4^d/4d/4^g/4^d'/4!8va(!d'/4^g'/4^d''/4g'/4d'/4!8va)!d'/4g/4d/4d/4G/4)[I:staff +1] (17:8:17(B/4[I:staff -1]D/4G/4d/4d/4g/4d'/4!8va(!d'/4g'/4d''/4g'/4d'/4!8va)!d'/4g/4d/4d/4G/4) | %34
[I:staff +1] (17:8:17(d/4[I:staff -1]^D/4^G/4^d/4d/4^g/4^d'/4!8va(!d'/4^g'/4^d''/4g'/4d'/4!8va)!d'/4g/4d/4d/4G/4)[I:staff +1] (17:8:17(=c/4[I:staff -1]^C/4^F/4^c/4c/4^f/4^c'/4!8va(!c'/4^f'/4^c''/4f'/4c'/4!8va)!c'/4f/4c/4c/4F/4) | %35
!pp![I:staff +1] (17:8:17(G/4[I:staff -1]_A,/4_D/4_A/4A/4_d/4_a/4a/4_d'/4_a'/4d'/4a/4a/4d/4A/4A/4D/4)[I:staff +1] (17:8:17(G/4[I:staff -1]A,/4D/4A/4A/4d/4a/4a/4d'/4a'/4d'/4a/4a/4d/4A/4A/4D/4) | %36
[I:staff +1] (17:8:17(E/4[I:staff -1]_A,/4_D/4_A/4A/4_d/4_a/4a/4_d'/4_a'/4d'/4a/4a/4d/4A/4A/4D/4)[I:staff +1] (17:8:17(E/4[I:staff -1]A,/4D/4A/4A/4d/4a/4a/4d'/4a'/4d'/4a/4a/4d/4A/4A/4-[DA]/4- | %37
[Q:1/4=44]"^Mouvt." [_A,_D_A]4-) | x4 | %39
[K:bass] x2!pp![I:staff +1] (24:8:24(^C,/4^G,/4^C/4[I:staff -1]=G,/4D/4G/4[I:staff +1]^G,/4^C/4^G/4[I:staff -1][K:treble]D/4!courtesy!=G/4d/4[I:staff +1]C/4^G/4^c/4[I:staff -1]=G/4d/4g/4[I:staff +1]G,/4C/4^G/4[I:staff -1]D/4=G/4d/4) | %40
 !tenuto![^G,^C^G]4- |[Q:1/4=42]"^Cédez - - - - - - - - - - - - -" [G,CG]4[Q:1/8=80] | %42
[Q:1/4=44]"^Mouvt., en retenant et en s'effaçant" x2[I:staff +1] (5:4:5(G/4[I:staff -1]_B/4_G/4_E/4_D/4)[I:staff +1] (5:4:5(F/4[I:staff -1]_A/4_F/4D/4_B,/4) | %43
[Q:1/8=87] x2 z[I:staff +1] (3(B/4[I:staff -1]_d'/4_d/4)[I:staff +1] (3(A/4[I:staff -1]d/4_D/4) | %44
[Q:1/8=86] x2[I:staff +1] (5:4:5(G/4[I:staff -1]_B/4_G/4_E/4_D/4)[I:staff +1] (5:4:5(F/4[I:staff -1]_A/4_F/4D/4_B,/4) | %45
[Q:1/8=85] x2[I:staff +1] (5:4:5(G/4[I:staff -1]_B/4_G/4_E/4_D/4)[I:staff +1] (5:4:5(F/4[I:staff -1]_A/4_F/4D/4_B,/4) | %46
[Q:1/8=84] x!<(! [=dg=d']2!<)!!pp! [gg'] |[Q:1/8=83] [_e_e'] x x2 |[Q:1/8=82] x4 | %49
[Q:1/8=81] z2 z x |[Q:1/8=80] x4 | x4 |] %52
V:2
"_una corda"!ped! (.[CEG]!ped-up!!ped!.[B,DF]!ped-up!!ped! .[CEG]!ped-up!!ped!.[B,DF])!ped-up! | %1
!ped! (.[CEG]/.[DFA]/!ped-up!!ped!.[EGB]/.[DFA]/)!ped-up!!ped! (.[CEG]/.[DFA]/!ped-up!!ped!.[EGB]/.[DFA]/)!ped-up! | %2
[M:3/8]!ped! (.[CEG]!ped-up!!ped!.[B,DF]!ped-up!!ped!.[A,CE])!ped-up! | %3
[M:3/4][K:bass] (.[G,B,D]!ped!.[G,B,D])!ped-up!!ped! (.[G,B,D]!ped-up!!ped!.[G,B,D])!ped-up!!ped! (.[G,B,D]!ped-up!!ped!.[G,B,D])!ped-up!!ped!!ped-up! | %4
[M:4/8]!<(![I:staff +1] (.[C,,G,,]/!ped![I:staff -1].[_D,_A,]/[I:staff +1].[C,G,]/!ped-up!!ped!!<)![I:staff -1][K:treble]!p!.[_D_A]/)!pp![I:staff +1] (5:4:5(G/4!ped-up!!ped![I:staff -1]_B/4_G/4_E/4D/4)[I:staff +1] (5:4:5(F/4!ped-up!!ped![I:staff -1]A/4_F/4D/4_B,/4)!ped-up! | %5
[K:bass]!<(![I:staff +1] (.[C,,G,,]/!ped![I:staff -1].[_D,_A,]/[I:staff +1].[C,G,]/!ped-up!!ped!!<)![I:staff -1][K:treble]!p!.[_D_A]/)!pp![I:staff +1] (5:4:5(G/4!ped-up!!ped![I:staff -1]_B/4_G/4_E/4D/4)[I:staff +1] (5:4:5(F/4!ped-up!!ped![I:staff -1]A/4_F/4D/4_B,/4)!ped-up! | %6
[I:staff +1] (5:4:5(F/4!ped![I:staff -1]_A/4_F/4_D/4_B,/4[I:staff +1] (5:4:5B/4!ped-up!!ped![I:staff -1]c/4A/4=F/4=D/4[I:staff +1] (5:4:5d/4!ped-up!!ped![I:staff -1]_e/4_d/4_B/4_G/4[I:staff +1] (5:4:5=B/4!ped-up!!ped![I:staff -1]c/4A/4F/4D/4)!ped-up! | %7
[I:staff +1] (5:4:5(F/4!ped![I:staff -1]_A/4_F/4_D/4_B,/4[I:staff +1] (5:4:5B/4!ped-up!!ped![I:staff -1]c/4A/4=F/4=D/4[I:staff +1] (5:4:5d/4!ped-up!!ped![I:staff -1]_e/4_d/4_B/4_G/4[I:staff +1] (5:4:5=d/4!ped-up!!ped![I:staff -1]e/4_d/4B/4G/4)!ped-up! | %8
[I:staff +1] (5:4:5(d/4!ped![I:staff -1]_e/4_d/4_B/4_G/4!>(![I:staff +1] (5:4:5=d/4[I:staff -1]e/4_d/4B/4G/4[I:staff +1] (5:4:5=d/4[I:staff -1]e/4_d/4B/4G/4[I:staff +1] (5:4:5=d/4[I:staff -1]e/4_d/4B/4G/4)!>)!!ped-up! | %9
!pp![I:staff +1] (5:4:5(d/4!ped![I:staff -1]^d/4^c/4^A/4^F/4[I:staff +1] (5:4:5=d/4[I:staff -1]^d/4c/4A/4F/4[I:staff +1] (5:4:5=d/4[I:staff -1]^d/4c/4A/4F/4[I:staff +1] (5:4:5=d/4[I:staff -1]^d/4c/4A/4F/4)!ped-up! | %10
[I:staff +1] (5:4:5(d/4!ped![I:staff -1]^d/4^c/4^A/4^F/4[I:staff +1] (5:4:5=d/4[I:staff -1]^d/4c/4A/4F/4[I:staff +1] (5:4:5=d/4[I:staff -1]^d/4c/4A/4F/4[I:staff +1] (5:4:5=d/4[I:staff -1]^d/4c/4A/4F/4)!ped-up! | %11
[I:staff +1] (5:4:5(d/4!ped![I:staff -1]^d/4^c/4^A/4^F/4[I:staff +1] (5:4:5=d/4[I:staff -1]^d/4c/4A/4F/4[I:staff +1] (5:4:5=d/4[I:staff -1]^d/4c/4A/4F/4[I:staff +1] (5:4:5=d/4[I:staff -1]^d/4c/4A/4F/4)!ped-up! | %12
[I:staff +1] (5:4:5(d/4!ped![I:staff -1]^d/4^c/4^A/4^F/4[I:staff +1] (5:4:5=d/4[I:staff -1]^d/4c/4A/4F/4[I:staff +1] (5:4:5=d/4[I:staff -1]^d/4c/4A/4F/4[I:staff +1] (5:4:5=d/4[I:staff -1]^d/4c/4A/4F/4)!ped-up! | %13
[I:staff +1] (5:4:5(d/4!ped![I:staff -1]^d/4^c/4^A/4^F/4)[I:staff +1] (5:4:5(B/4[I:staff -1]c/4A/4F/4^D/4)[I:staff +1] (5:4:5(=A/4[I:staff -1]^A/4F/4D/4^C/4)[I:staff +1] (5:4:5(B/4[I:staff -1]c/4A/4F/4D/4) | %14
[I:staff +1] (5:4:5(d/4[I:staff -1]d/4^c/4^A/4^F/4)[I:staff +1] (5:4:5(B/4[I:staff -1]c/4A/4F/4^D/4)[I:staff +1] (5:4:5(=A/4[I:staff -1]^A/4F/4D/4^C/4)[I:staff +1] (5:4:5(B/4[I:staff -1]c/4A/4F/4D/4)!ped-up! | %15
!pp! z2!ped! !arpeggio!!tenuto![^C^c]2-!ped-up!!ped!!ped-up! | %16
 [Cc]2!ped! !arpeggio!!tenuto![^C^c]2!ped-up!!ped!!ped-up! | %17
"_un peu en dehors" x4!ped!!ped-up!!ped!!ped-up!!ped!!ped-up! | %18
 x4!ped!!ped-up!!ped!!ped-up!!ped!!ped-up! | %19
 z2!ped!!pp! (5:4:5(G/4[I:staff -1]_B/4_G/4_E/4_D/4)[I:staff +1] (5:4:5(F/4[I:staff -1]_A/4_F/4_D/4_B,/4)!ped-up! | %20
[I:staff +1] z2!ped!!pp!!<(! x!<)!!p!!>(! (3(B/4[I:staff -1]^c'/4^c/4)[I:staff +1] (3(A/4[I:staff -1]c/4^C/4)!>)!!ped-up! | %21
"_un peu en dehors"[I:staff +1] x4!ped!!ped-up!!ped!!ped-up!!ped!!ped-up! | %22
 x4!ped!!ped-up!!ped!!ped-up!!ped!!ped-up! | %23
[M:3/4] z2!ped!!pp! (5:4:5(G/4[I:staff -1]_B/4_G/4_E/4_D/4)[I:staff +1] (5:4:5(F/4[I:staff -1]_A/4_F/4_D/4_B,/4)[I:staff +1] (5:4:5(=G/4!ped-up!!ped![I:staff -1]B/4_G/4_E/4D/4)[I:staff +1] (5:4:5(=F/4!ped-up!!ped![I:staff -1]A/4_F/4_D/4_B,/4)!ped-up! | %24
[M:4/8]!ped![I:staff +1] (.[CEG]/.[DFA]/!ped-up!!ped!.[EGB]/.[DFA]/)!ped-up!!ped! (.[CEG]/.[DFA]/!ped-up!!ped!.[EGB]/.[DFA]/)!ped-up! | %25
[M:3/8]!ped! (.[CEG]!ped-up!!ped!.[B,DF]!ped-up!!ped!.[A,CE])!ped-up! | %26
[M:4/8][K:bass] (.[G,B,D]!ped!.[G,B,D])!ped-up!!ped! .[C,E,G,]!ped-up!!ped!.[D,F,A,]!ped-up!!ped!!ped-up! | %27
 (.[G,B,D]!ped!.[G,B,D])!ped-up!!ped! .[C,E,G,]!ped-up!!ped!.[G,B,D]!ped-up!!ped!!ped-up! | %28
!ped! !tenuto!^F,,2[K:treble] x/!ped-up! z/{/[=CEG][I:staff -1][_D_G_B]}[I:staff +1] .[E!courtesy!=G=c] | %29
[K:bass]!ped! !tenuto!^F,,2[K:treble] x/!ped-up! z/{/[D^F=A][I:staff -1][_E_A=c]}[I:staff +1] .[F!courtesy!=Ad]- | %30
 ([!courtesy!^FAd]2!p!!>(! !tenuto![FAd]2)!>)! |!pp!!ped! x4!ped-up!!ped!!ped-up! | %32
!<(!!ped! d!<)!!ped-up!!p!!ped! .^e!ped-up!!>(!!ped! d!>)!!ped-up!!pp!!ped! .B!ped-up! | %33
!ped! (B/ =d3/2)!ped-up!!ped! B!ped-up!!ped! .c!ped-up! |!ped! d x!ped-up!!ped! c x!ped-up! | %35
!ped! G!ped-up!!ped! ._B!ped-up!!ped! .G!ped-up!!ped! .E!ped-up! | %36
!ped! (E/ G3/2)!ped-up!!ped! .E!ped-up!!ped! .F!ped-up! | %37
 x4!ped!!ped-up!!ped!!ped-up!!ped!!ped-up! | x4!ped!!ped-up!!ped!!ped-up!!ped!!ped-up! | %39
[K:bass] z2!ped! x/[K:treble] x/ x/ x/!ped-up! | %40
[K:bass] z/4!p!!<(! .^C,,/4"_un peu marqué".D,,/4.G,,/4.^D,,/!<)!!mp!^G,,/- G,,E,,-!ped! | %41
 E,,4!ped-up! |[K:treble] z2!ped!!pp!"_dim." (.[CEG].[B,DF])!ped-up! | %43
 z2!ped! (.[CEG]/.[DFA]/.[EGB]/.[DFA]/)!ped-up! | z2!ped! (.[CEG].[B,DF])!ped-up! | %45
 z2!ped! (.[CEG].[B,DF])!ped-up! | %46
!ppp! (6:4:6C/4!ped!_D/4G/4-[I:staff -1][x-_d]/4[x-g]/4[x-_d']/4[I:staff +1] [=DG]2!ped-up!!ped! G!ped-up!!ped!!ped-up! | %47
"_dim." x/!ped! (5:2:5x/4-x/4-x/4-x/4-x/4- [GAg]3!ped-up!!ped!!ped-up!!ped!!ped-up! | x4 | %49
 x2!ped!!ped-up!!ped! x/ (5:2:5x/4-x/4-x/4-x/4-x/4- [GAg]-!ped-up! | %50
!ped! [GAg]4-!ped-up!!ped!!ped-up! |!pppp!!ped! x4!ped-up!!ped! |] %52
V:3
 x4 | x4 |[M:3/8] x3 | %3
[M:3/4] z[I:staff -1] (6:4:6(G,/4[I:staff +1]D,/4G,,/4D,,/4G,,/4D,/4) z[I:staff -1] (6:4:6(G,/4[I:staff +1]D,/4G,,/4D,,/4G,,/4D,/4) z[I:staff -1] (6:4:6(G,/4[I:staff +1]D,/4G,,/4D,,/4G,,/4D,/4) | %4
[M:4/8] x x[K:treble] (.[CEG].[B,DF]) |[K:bass] x x[K:treble] (.[CEG].[B,DF]) | %6
 (.[B,DF].[EGB].[GBd].[EGB]) | (.[B,DF].[EGB].[GBd].[GBd]) | (.[GBd].[GBd].[GBd].[GBd]) | %9
 (.[GBd].[GBd].[GBd].[GBd]) | (.[GBd].[GBd].[GBd].[GBd]) | (.[GBd].[GBd].[GBd].[GBd]) | %12
 (.[GBd].[GBd].[GBd].[GBd]) | (.[GBd].[EGB].[DFA].[EGB]) | (.[GBd].[EGB].[DFA].[EGB]) | %15
 (.[GBd].[EGB].[DFA].[EGB] |!>(! .[DFA].[EGB].[DFA]!>)!!ppp!.[EGB]) | %17
[K:bass]!pp!!8vb(! (.[^C,,,^C,,]/.[D,,,D,,]/ !tenuto![D,,,D,,]2 .[G,,,G,,] | %18
 .[^D,,,^D,,] !tenuto![^G,,,^G,,]2 .[E,,,E,,]) | ((.[^C,,,^C,,]!8vb)! !tenuto![^C,^C]3)) | %20
!8vb(! ((.[^C,,,^C,,]!8vb)! !tenuto![^C,^C]3)) | %21
!pp!!8vb(! (.[^C,,,^C,,]/.[D,,,D,,]/ !tenuto![D,,,D,,]2 .[G,,,G,,] | %22
 .[E,,,E,,] !tenuto![A,,,A,,]2 .[F,,,F,,]) |[M:3/4] ((.[^C,,,^C,,]!8vb)! !tenuto![^C,^C]3)) x x | %24
[M:4/8] z4 |[M:3/8] z3 |[M:4/8] x[I:staff -1] (6:4:6(G,/4[I:staff +1]D,/4G,,/4D,,/4G,,/4D,/4) x x | %27
 x[I:staff -1] (6:4:6(G,/4[I:staff +1]D,/4G,,/4D,,/4G,,/4D,/4) x x | x4 | x4 | x4 | x4 | x4 | x4 | %34
 x4 | x4 | x4 |!pp!!8vb(! .[^C,,,^C,,]/.[D,,,D,,]/ !tenuto![D,,,D,,]2 .[G,,,G,,] | %38
!<(! .[^D,,,^D,,]!<)!!p!!>(! !tenuto![^G,,,^G,,]2 .[E,,,E,,]!>)! |!pp! !tenuto![^C,,,^C,,]4!8vb)! | %40
 x3 x | z2!pp!!>(!!8vb(! (E,,,2!>)! |!pp! C,,,4) | C,,,4 | C,,,4 | C,,,4!8vb)! | x x x x | %47
 x x x x | x4 | x4 | x4 | x4 |] %52
V:4
 x4 | x4 |[M:3/8] x3 |[M:3/4][K:bass] x6 |[M:4/8] x4 | x4 | x4 | x4 |[K:treble] x4 | x4 | %10
{/D} !>!!tenuto!^C4 | z2{/D} !>!!tenuto!^C2- | C2 !>!!tenuto!^A,2 | !>!!tenuto!^F,4- | F,4 | x4 | %16
 x4 |!8va(! x4 | x4 | x!8va)! x3 |!8va(! x!8va)! x3 |!8va(! x4 | x4 |[M:3/4] x!8va)! x5 | %24
[M:4/8] x4 |[M:3/8] x3 |[M:4/8][K:bass] x4 | x4 | x5/8[K:treble] x!8va(! x7/8!8va)! x3/2 | %29
[K:bass] x5/8[K:treble] x!8va(! x7/8!8va)! x3/2 | x4 | %31
 x49/60!8va(! x7/12!8va)! x7/5!8va(! x7/12!8va)! x37/60 | %32
 x49/60!8va(! x7/12!8va)! x7/5!8va(! x7/12!8va)! x37/60 | %33
 x49/60!8va(! x7/12!8va)! x7/5!8va(! x7/12!8va)! x37/60 | %34
 x49/60!8va(! x7/12!8va)! x7/5!8va(! x7/12!8va)! x37/60 | x4 | x4 | [^G,^C^G]4- | [G,CG]4 | %39
[K:bass] x11/4[K:treble] x5/4 | x4 | x4 | x4 | x4 | x4 | x4 | x4 | %47
 x/[I:staff +1] (5:2:5(G/4_A/4g/4[I:staff -1]_a/4-[x-g']/4 [a_a']3) | z4 | %49
 x2 x/"^Presque plus rien"[I:staff +1] (5:2:5(G/4_A/4g/4[I:staff -1]_a/4-[x-g']/4 [a_a']-) | %50
 [aa']4- | x4 |] %52
V:5
 x4 | x4 |[M:3/8] x3 |[M:3/4][K:bass] x6 |[M:4/8] x3/2[K:treble] x5/2 | %5
[K:bass] x3/2[K:treble] x5/2 | x4 | x4 | x4 | x4 | x4 | x4 | x4 | x4 | x4 | x4 | x4 | x4 | x4 | %19
 x2 (.[=CEG].[B,=DF]) | x2 (.[=CEG]/.[DFA]/.[EGB]/.[DFA]/) | x4 | x4 | %23
[M:3/4] x2 (.[=CEG].[B,=DF]) (.[=C=EG].[=B,=DF]) |[M:4/8] x4 |[M:3/8] x3 |[M:4/8][K:bass] x4 | x4 | %28
 (12:8:12^F,,/4^C,/4^F,/4^A,/4^C/4[K:treble]^F/4^A/4^c/4^f/4^a/4^c'/4^f'/4 ^a'/ x3/2 | %29
[K:bass] (12:8:12^F,,/4^C,/4^F,/4^A,/4^C/4[K:treble]^F/4^A/4^c/4^f/4^a/4^c'/4^f'/4 ^a'/ x3/2 | x4 | %31
 !tenuto![^FA]/ x3/2 !tenuto![FA]/ x3/2 | !tenuto![^FA]/ x/ x !tenuto![FA]/ x/ x | %33
 !tenuto![^FA]/ x3/2 !tenuto![FA]/ x/ x | !tenuto![^FA]/ x3/2 !tenuto![E=G]/ x3/2 | %35
 !tenuto![B,D]/ x/ x x x | [B,D]4 | x4 | x4 |[K:bass] x5/2[K:treble] x3/2 |[K:bass] x4 | x4 | %42
[K:treble] x4 | x4 | x4 | x4 | C4- | (C2 [C=EG][B,DF]- | [B,DF][CEG]/[DFA]/ [EGB]<[DFA]) | %49
 z (.[CEG] .[B,DF]2) | z2 .[CEG]2 | .[B,DF]2 z2 |] %52
V:6
 x4 | x4 |[M:3/8] x3 |[M:3/4][K:bass] x6 |[M:4/8] x3/2[K:treble] x5/2 | %5
[K:bass] x3/2[K:treble] x5/2 | x4 | x4 | x4 | x4 | x4 | x4 | x4 | x4 | x4 | x4 | x4 | x4 | x4 | %19
 x4 | x4 | x4 | x4 |[M:3/4] x6 |[M:4/8] x4 |[M:3/8] x3 |[M:4/8][K:bass] x4 | x4 | %28
 x5/6[K:treble] x19/6 |[K:bass] x5/6[K:treble] x19/6 | x4 | x4 | x4 | x4 | x4 | x4 | x4 | x4 | x4 | %39
[K:bass] x5/2[K:treble] x3/2 |[K:bass] x4 | x4 |[K:treble] x4 | x4 | x4 | x4 | x4 | _E x3 | x4 | %49
 x4 | x4 | x4 |] %52

